X: 22
I: linebreak $
T: Tesara
N: Drone: G/D
K: C major
M: 6/8
L: 1/8
P: A
"^Saltarello"d3 c3/B/A | G3 G3/F/E | D3 D3 |: d3 c3/B/A | G3 G3/F/E | D3 D3 :: 
P: B
"^Piva"D2D G2D | G2A B2A | B2c d2d | B2G F2F | E2E D2D | A3 G3/F/E | 
D3 z2c | d3 z2c | d3 z2d | e2e c2B | d3 d3 :: 
P: C
G2G G2E | 
D3 D3/E/F | G3 G3 "^(4)":| d3 c3/B/A | G3 F3/D/E | D3 D2D | E2D E2F | 
G3 G3 |: G2G G2E | D3 D3/2E/2F | G3 G3 "^(4)":| d3 c3/2B/2A | G3 F3/2D/2E | D3 D2D | E2D E2F | G3 G3 |: P:D"^Saltarello"G2G2A2 | B2B2d2 | B3 c3/2B/2A | G3 F3/2D/2E | D2E2D2 | D3/2E/2F G3 :: P:E"^Piva"d2c BA2 | G2G G2G | D3 E3 | D3 D3 "^(4)":| P:FF2D G2D | G2A B2A | B2A B2c | d3 z2d | e2e c2c |: P:G"^Saltarello"e3 A3 | A3 G2d | e3 A3 | A3 G2d "^(4)":| P:Hd3 z2c | d3 z2d | e3 e3/2c/2c | d3 d3 | G3 F3/2D/2E | D6 |]


